src/pos-icons/calendar-question.svg

<svg height="24" viewBox="0 0 24 24" width="24" xmlns="http://www.w3.org/2000/svg"><path d="m6 1v2h-1c-1.11 0-2 .9-2 2v14a2 2 0 0 0 2 2h14a2 2 0 0 0 2-2v-14a2 2 0 0 0 -2-2h-1v-2h-2v2h-8v-2zm-1 7h14v11h-14zm7.19 1c-.87 0-1.57.2-2.11.59-.52.41-.78.98-.77 1.77l.01.03h1.93c.01-.3.1-.53.28-.69.18-.15.4-.23.66-.23.31 0 .57.1.75.28.18.19.26.45.26.75 0 .32-.07.59-.23.82-.14.23-.35.43-.61.59-.51.34-.86.64-1.05.91-.2.26-.31.68-.31 1.18h2c0-.31.04-.56.13-.74s.26-.36.51-.52c.45-.24.82-.53 1.11-.93s.44-.81.44-1.31c0-.76-.27-1.37-.81-1.82-.53-.45-1.26-.68-2.19-.68m-1.19 7v2h2v-2z"/></svg>

<?xml version="1.0" encoding="UTF-8"?><!DOCTYPE svg PUBLIC "-//W3C//DTD SVG 1.1//EN" "http://www.w3.org/Graphics/SVG/1.1/DTD/svg11.dtd"><svg xmlns="http://www.w3.org/2000/svg" xmlns:xlink="http://www.w3.org/1999/xlink" version="1.1" id="mdi-calendar-question" width="24" height="24" viewBox="0 0 24 24"><path d="M6,1V3H5C3.89,3 3,3.9 3,5V19A2,2 0 0,0 5,21H19A2,2 0 0,0 21,19V5A2,2 0 0,0 19,3H18V1H16V3H8V1H6M5,8H19V19H5V8M12.19,9C11.32,9 10.62,9.2 10.08,9.59C9.56,10 9.3,10.57 9.31,11.36L9.32,11.39H11.25C11.26,11.09 11.35,10.86 11.53,10.7C11.71,10.55 11.93,10.47 12.19,10.47C12.5,10.47 12.76,10.57 12.94,10.75C13.12,10.94 13.2,11.2 13.2,11.5C13.2,11.82 13.13,12.09 12.97,12.32C12.83,12.55 12.62,12.75 12.36,12.91C11.85,13.25 11.5,13.55 11.31,13.82C11.11,14.08 11,14.5 11,15H13C13,14.69 13.04,14.44 13.13,14.26C13.22,14.08 13.39,13.9 13.64,13.74C14.09,13.5 14.46,13.21 14.75,12.81C15.04,12.41 15.19,12 15.19,11.5C15.19,10.74 14.92,10.13 14.38,9.68C13.85,9.23 13.12,9 12.19,9M11,16V18H13V16H11Z" /></svg>
